icons/money-dollar-circle-fill.svg

<svg xmlns="http://www.w3.org/2000/svg" width="24" height="24" fill="none"><g clip-path="url(#a)"><g><path fill="#121212" d="M12 22C6.477 22 2 17.523 2 12C2 6.477 6.477 2 12 2C17.523 2 22 6.477 22 12C22 17.523 17.523 22 12 22ZM8.5 14V16H11V18H13V16H14C14.663 16 15.2989 15.7366 15.7678 15.2678C16.2366 14.7989 16.5 14.163 16.5 13.5C16.5 12.837 16.2366 12.2011 15.7678 11.7322C15.2989 11.2634 14.663 11 14 11H10C9.86739 11 9.74021 10.9473 9.64645 10.8536C9.55268 10.7598 9.5 10.6326 9.5 10.5C9.5 10.3674 9.55268 10.2402 9.64645 10.1464C9.74021 10.0527 9.86739 10 10 10H15.5V8H13V6H11V8H10C9.33696 8 8.70107 8.26339 8.23223 8.73223C7.76339 9.20107 7.5 9.83696 7.5 10.5C7.5 11.163 7.76339 11.7989 8.23223 12.2678C8.70107 12.7366 9.33696 13 10 13H14C14.1326 13 14.2598 13.0527 14.3536 13.1464C14.4473 13.2402 14.5 13.3674 14.5 13.5C14.5 13.6326 14.4473 13.7598 14.3536 13.8536C14.2598 13.9473 14.1326 14 14 14H8.5Z"/></g></g><defs><clipPath id="a"><rect width="24" height="24" fill="white"/></clipPath></defs></svg>

<svg width="24" height="24" fill="none" xmlns="http://www.w3.org/2000/svg"><g clip-path="url(#a)"><path d="M12 22C6.477 22 2 17.523 2 12S6.477 2 12 2s10 4.477 10 10-4.477 10-10 10Zm-3.5-8v2H11v2h2v-2h1a2.5 2.5 0 0 0 0-5h-4a.5.5 0 0 1 0-1h5.5V8H13V6h-2v2h-1a2.5 2.5 0 1 0 0 5h4a.5.5 0 0 1 0 1H8.5Z" /></g><defs><clipPath id="a"><path fill="#fff" d="M0 0h24v24H0z"/></clipPath></defs></svg>
